X:1
T:Liza (All the clouds'll roll away)
T:Liza
C:George Gershwin
Z:All Rights Reserved
L:1/4
M:4/4
K:Eb
V:1 treble 
%%MIDI program 40
V:1
"Eb" B2"Bb7/F" B2 |"Gbdim" c2"C7/G" c2 |"Abm" e2"Adim" e2 |"Eb7/Bb" f4 |"Ab" z e c A |"C7" d B G2 | %6
w: Li- za|Li- za|skies are|grey|But if you|smile on me|
"Fm7" z c/A/"Bb7" F/E/D/F/ |"Eb" E4 |"Eb" B2"Bb7/F" B2 |"Gbdim" c2"C7/G" c2 |"Abm" e2"Adim" e2 | %11
w: all the clouds will roll a-|way|Li- za|Li- za|don't de-|
"Eb7/Bb" f4 |"Ab" z e c A |"C7" d B G2 |"Fm7" z c/A/"Bb7" F/E/D/F/ |"Eb" E4 |"Cm" e4- | %17
w: lay|Come keep me|com- pan- y|and the clouds will roll a-|way|See|
 e/f/e/d/"G7" e d |"Cm" c3 G |"C7" B4 |"Ab" c4- | c/_d/c/B/"C7" c B |"Fm7" A3 E | %23
w: * the hon- ey moon a-|shin- ing|down|We|* could make a date with|Par- son|
"Bm6" _G3"Bb7" =G |"Eb" B2"Bb7/F" B2 |"Gbdim" c2"C7/G" c2 |"Abm" e2"Adim" e2 |"Eb7/Bb" f4 | %28
w: Brown So|Li- za|Li- za|name the|day|
"Ab" z e c A |"C7" d B G2 |"Fm7" z c/A/"Bb7" F/E/D/F/ |"Eb" E4 |] %32
w: When you'll be-|long to me|and the clouds will roll a-|way.|

